src/images/tech/sass.svg

<svg viewBox="0 0 117 87" fill="none" xmlns="http://www.w3.org/2000/svg">
<g clip-path="url(#clip0_14_47)">
<path d="M100.673 50.0766C96.603 50.0975 93.0653 51.0694 90.1035 52.5063C89.0162 50.3721 87.9295 48.4708 87.738 47.076C87.5246 45.4493 87.2691 44.4561 87.5246 42.5122C87.7805 40.5683 88.9312 37.8001 88.9098 37.589C88.8887 37.3778 88.6538 36.3846 86.3098 36.3637C83.9658 36.3424 81.9413 36.8073 81.7068 37.42C81.4724 38.0326 81.025 39.4273 80.7266 40.8637C80.3216 42.9771 76.0386 50.5198 73.5881 54.471C72.7993 52.9291 72.1174 51.5765 71.968 50.499C71.755 48.8722 71.4991 47.879 71.755 45.9351C72.0109 43.9912 73.1617 41.2235 73.1402 41.0119C73.1187 40.8007 72.8843 39.8075 70.5403 39.7866C68.1958 39.7653 66.1713 40.2302 65.9373 40.8429C65.7029 41.4559 65.4469 42.8923 64.957 44.2871C64.4667 45.6818 58.7769 58.275 57.2852 61.5285C56.6824 62.8453 56.0501 64.1487 55.3886 65.4376C55.3886 65.4376 55.3672 65.501 55.3032 65.6066C55.0954 66.0107 54.8824 66.4122 54.6643 66.811V66.8318C54.3444 67.4028 54.0035 67.9307 53.833 67.9307C53.705 67.9307 53.4706 66.4095 53.8755 64.3387C54.7278 59.9652 56.7524 53.1615 56.7313 52.9291C56.7313 52.8022 57.1148 51.6191 55.4101 51.006C53.7475 50.3934 53.1511 51.4075 53.0017 51.4075C52.8527 51.4075 52.7458 51.7668 52.7458 51.7668C52.7458 51.7668 54.6003 44.118 49.2085 44.118C45.8417 44.118 41.1958 47.7734 38.8943 51.0694C36.278 52.4811 33.6639 53.8968 31.052 55.3166C29.7953 56.0139 28.4951 56.7113 27.2803 57.3661C27.1949 57.2818 27.1099 57.1758 27.0244 57.0915C20.5034 50.1822 8.442 45.3012 8.95339 36.0257C9.14534 32.6449 10.3171 23.7705 32.1178 12.9947C50.0608 4.22583 64.3392 6.65549 66.8111 12.0436C70.3484 19.7349 59.1608 34.0183 40.6204 36.0887C33.5455 36.8708 29.8373 34.1661 28.9 33.152C27.9197 32.0953 27.7703 32.0318 27.4079 32.2435C26.8115 32.5606 27.1949 33.5113 27.4079 34.0605C27.9622 35.4969 30.2422 38.0326 34.0994 39.2796C37.5091 40.378 45.7988 40.991 55.8361 37.1454C67.0666 32.8348 75.8466 20.8546 73.2682 10.8183C70.6893 0.633908 53.641 -2.72556 37.5091 2.95799C27.9197 6.33921 17.52 11.6634 10.0402 18.594C1.15363 26.834 -0.253039 33.997 0.322334 36.9976C2.38984 47.6465 17.2006 54.5771 23.1248 59.7114C22.8263 59.8804 22.5489 60.0286 22.3149 60.1555C19.3526 61.6132 8.05811 67.4658 5.24523 73.6568C2.04891 80.6716 5.75708 85.7009 8.20756 86.3765C15.8154 88.4686 23.6362 84.7076 27.8342 78.4953C32.0323 72.2834 31.5209 64.2119 29.5818 60.5144C29.5604 60.4722 29.5393 60.4296 29.4964 60.3875C30.2637 59.9439 31.052 59.479 31.8194 59.0354C33.2296 58.2088 34.6578 57.4126 36.1029 56.6474C35.3781 58.6126 34.8452 60.958 34.5897 64.3387C34.2698 68.3113 35.9105 73.4665 38.063 75.4947C39.0223 76.3828 40.1515 76.4037 40.8763 76.4037C43.3908 76.4037 44.5205 74.3329 45.7778 71.8819C47.3119 68.8818 48.6971 65.3954 48.6971 65.3954C48.6971 65.3954 46.971 74.8191 51.6595 74.8191C53.3641 74.8191 55.0902 72.6214 55.8575 71.5017V71.5226C55.8575 71.5226 55.9 71.4592 55.9855 71.3114C56.156 71.0368 56.2624 70.8674 56.2624 70.8674V70.8257C56.9443 69.6421 58.4789 66.9587 60.7589 62.5004C63.6998 56.7534 66.5342 49.5696 66.5342 49.5696C66.5342 49.5696 66.7901 51.3232 67.6634 54.239C68.1753 55.9505 69.2401 57.831 70.0929 59.648C69.411 60.5991 68.9846 61.127 68.9846 61.127L69.0061 61.1483C68.4518 61.8665 67.8554 62.6481 67.1945 63.4094C64.8716 66.1558 62.1016 69.3045 61.7178 70.2126C61.2699 71.2901 61.3768 72.0722 62.2296 72.7062C62.8475 73.1711 63.9553 73.234 65.085 73.1711C67.1735 73.0229 68.6437 72.5158 69.3681 72.1991C70.4978 71.7976 71.819 71.1846 73.0548 70.276C75.3352 68.6067 76.72 66.2192 76.5925 63.0714C76.5285 61.3386 75.9531 59.6059 75.2498 57.9787C75.4632 57.6833 75.6547 57.3874 75.8681 57.0915C79.4693 51.8724 82.2612 46.1462 82.2612 46.1462C82.2612 46.1462 82.5171 47.8998 83.3905 50.8161C83.8168 52.2951 84.6907 53.901 85.4575 55.4643C82.0693 58.1903 79.9807 61.3594 79.2349 63.4302C77.8926 67.2759 78.9365 69.0082 80.9185 69.4097C81.8133 69.6 83.092 69.1772 84.0298 68.7757C85.2231 68.3956 86.6297 67.7408 87.9724 66.7684C90.2529 65.0995 92.4474 62.775 92.3195 59.6272C92.2555 58.1903 91.8721 56.7743 91.3392 55.4009C94.2161 54.2182 97.9242 53.563 102.655 54.1122C112.799 55.2953 114.802 61.5706 114.418 64.2123C114.035 66.8531 111.904 68.29 111.201 68.7336C110.497 69.1777 110.263 69.3254 110.327 69.6421C110.412 70.107 110.753 70.0862 111.35 70.0014C112.181 69.8537 116.678 67.8672 116.869 63.0075C117.189 56.7956 111.222 50.0132 100.673 50.0766ZM22.4214 76.2346C19.0542 79.8687 14.3662 81.2421 12.3417 80.0803C10.1681 78.8333 11.0204 73.4665 15.1545 69.6213C17.669 67.2759 20.9083 65.0991 23.0608 63.7683C23.5507 63.4724 24.2755 63.0501 25.1493 62.5217C25.2983 62.437 25.3838 62.3948 25.3838 62.3948L25.8952 62.0776C27.4078 67.5713 25.9591 72.4103 22.4214 76.2346ZM46.9285 59.7114C45.7563 62.543 43.3058 69.7903 41.8141 69.3888C40.5354 69.0508 39.7466 63.5571 41.5582 58.1269C42.4745 55.4009 44.4136 52.147 45.5433 50.8796C47.3759 48.8509 49.4005 48.1744 49.8904 48.9991C50.5087 50.0766 47.6529 57.9365 46.9285 59.7114ZM67.152 69.3041C66.6617 69.5578 66.1932 69.7269 65.9798 69.6C65.8308 69.5153 66.1932 69.1772 66.1932 69.1772C66.1932 69.1772 68.7292 66.473 69.7305 65.2473C70.3063 64.5291 70.9877 63.684 71.7125 62.7329V63.0075C71.7125 66.2405 68.5583 68.4169 67.1516 69.3041H67.152ZM82.7511 65.7756C82.3887 65.5219 82.4527 64.6768 83.6674 62.0355C84.1363 61.0001 85.2441 59.2678 87.1411 57.5985C87.3541 58.2746 87.5035 58.9298 87.4821 59.5424C87.4606 63.6205 84.5202 65.1417 82.7511 65.7756Z" fill="#CD6799"/>
</g>
<defs>
<clipPath id="clip0_14_47">
<rect width="117" height="87" fill="white"/>
</clipPath>
</defs>
</svg>

<svg viewBox="0 0 117 87" fill="none" xmlns="http://www.w3.org/2000/svg"><g clip-path="url(#a)"><path d="M100.673 50.077c-4.07.02-7.608.992-10.57 2.43-1.087-2.135-2.173-4.036-2.365-5.431-.213-1.627-.469-2.62-.213-4.564.255-1.944 1.406-4.712 1.385-4.923-.021-.211-.256-1.204-2.6-1.225-2.344-.022-4.369.443-4.603 1.056-.235.613-.682 2.007-.98 3.444-.405 2.113-4.688 9.656-7.139 13.607-.789-1.542-1.47-2.894-1.62-3.972-.213-1.627-.469-2.62-.213-4.564s1.407-4.712 1.385-4.923c-.021-.211-.256-1.205-2.6-1.225-2.344-.022-4.369.443-4.603 1.056-.234.613-.49 2.05-.98 3.444-.49 1.395-6.18 13.988-7.672 17.242a96.837 96.837 0 0 1-1.896 3.909s-.022.063-.086.169c-.208.404-.42.805-.639 1.204v.02c-.32.572-.66 1.1-.831 1.1-.128 0-.362-1.522.043-3.592.852-4.374 2.876-11.178 2.855-11.41 0-.127.384-1.31-1.32-1.923-1.663-.613-2.26.401-2.41.401-.148 0-.255.36-.255.36s1.854-7.649-3.538-7.649c-3.366 0-8.012 3.655-10.314 6.951a2876.3 2876.3 0 0 0-7.842 4.248c-1.257.697-2.557 1.394-3.772 2.05-.085-.085-.17-.191-.256-.275-6.52-6.91-18.582-11.79-18.07-21.066.191-3.381 1.363-12.256 23.164-23.031 17.943-8.77 32.221-6.34 34.693-.951 3.537 7.69-7.65 21.974-26.19 24.045-7.076.782-10.784-1.923-11.721-2.937-.98-1.057-1.13-1.12-1.492-.909-.597.318-.213 1.268 0 1.817.554 1.437 2.834 3.973 6.691 5.22 3.41 1.098 11.7 1.711 21.737-2.135 11.23-4.31 20.01-16.29 17.432-26.327C70.69.634 53.641-2.726 37.51 2.958 27.92 6.339 17.52 11.663 10.04 18.594 1.154 26.834-.253 33.997.322 36.998 2.39 47.647 17.201 54.578 23.125 59.71c-.299.17-.576.318-.81.445-2.962 1.457-14.257 7.31-17.07 13.5-3.196 7.016.512 12.045 2.963 12.72 7.607 2.093 15.428-1.668 19.626-7.88 4.198-6.213 3.687-14.284 1.748-17.982-.022-.042-.043-.084-.086-.127.768-.443 1.556-.908 2.323-1.352a113.53 113.53 0 0 1 4.284-2.388c-.725 1.966-1.258 4.311-1.513 7.692-.32 3.972 1.32 9.127 3.473 11.156.96.888 2.088.909 2.813.909 2.515 0 3.645-2.071 4.902-4.522 1.534-3 2.92-6.487 2.92-6.487S46.97 74.82 51.66 74.82c1.704 0 3.43-2.198 4.198-3.317v.02s.042-.063.128-.21l.276-.445v-.041c.682-1.184 2.217-3.867 4.497-8.326 2.94-5.747 5.775-12.93 5.775-12.93s.256 1.753 1.13 4.669c.511 1.712 1.576 3.592 2.429 5.409-.682.951-1.108 1.479-1.108 1.479l.021.021c-.554.718-1.15 1.5-1.811 2.261-2.323 2.747-5.093 5.896-5.477 6.804-.448 1.077-.341 1.86.512 2.493.617.465 1.725.528 2.855.465 2.089-.148 3.559-.655 4.283-.972 1.13-.401 2.451-1.014 3.687-1.923 2.28-1.67 3.665-4.057 3.537-7.205-.064-1.732-.639-3.465-1.342-5.092.213-.296.405-.592.618-.887 3.601-5.22 6.393-10.946 6.393-10.946s.256 1.754 1.13 4.67c.426 1.48 1.3 3.085 2.066 4.648-3.388 2.726-5.476 5.895-6.222 7.966-1.342 3.846-.299 5.578 1.683 5.98.895.19 2.174-.233 3.112-.634 1.193-.38 2.6-1.035 3.942-2.008 2.28-1.668 4.475-3.993 4.348-7.14-.064-1.438-.448-2.854-.98-4.227 2.876-1.183 6.584-1.838 11.315-1.289 10.144 1.183 12.147 7.459 11.763 10.1-.383 2.641-2.514 4.078-3.217 4.522-.704.444-.938.591-.874.908.085.465.426.444 1.023.36.831-.148 5.328-2.135 5.519-6.994.32-6.212-5.647-12.995-16.196-12.931zM22.421 76.235c-3.367 3.634-8.055 5.007-10.08 3.845-2.173-1.247-1.32-6.614 2.814-10.459 2.514-2.345 5.753-4.522 7.906-5.853.49-.296 1.215-.718 2.088-1.246.15-.085.235-.127.235-.127l.511-.317c1.513 5.493.064 10.332-3.474 14.157zM46.93 59.71c-1.173 2.832-3.623 10.08-5.115 9.678-1.279-.338-2.067-5.832-.256-11.262.916-2.726 2.856-5.98 3.985-7.247 1.833-2.03 3.858-2.706 4.347-1.88.619 1.077-2.237 8.937-2.962 10.711zm20.223 9.593c-.49.254-.959.423-1.172.296-.15-.085.213-.423.213-.423s2.536-2.704 3.538-3.93c.575-.718 1.257-1.563 1.982-2.514v.275c0 3.232-3.155 5.409-4.561 6.296zm15.6-3.528c-.363-.254-.3-1.1.915-3.74.47-1.036 1.577-2.768 3.474-4.438.213.677.362 1.332.341 1.944-.021 4.078-2.962 5.6-4.73 6.234z" fill="#CD6799"/></g><defs><clipPath id="a"><path fill="#fff" d="M0 0h117v87H0z"/></clipPath></defs></svg>
